ui/StatusQ/src/assets/img/icons/mobile.svg

<svg fill="none" height="24" viewBox="0 0 24 24" width="24" xmlns="http://www.w3.org/2000/svg"><g fill="#000"><path d="m12 18.5c.8284 0 1.5-.6716 1.5-1.5s-.6716-1.5-1.5-1.5-1.5.6716-1.5 1.5.6716 1.5 1.5 1.5z"/><path clip-rule="evenodd" d="m5 6c0-2.20914 1.79086-4 4-4h6c2.2091 0 4 1.79086 4 4v12c0 2.2091-1.7909 4-4 4h-6c-2.20914 0-4-1.7909-4-4zm1.5 0c0-1.38071 1.11929-2.5 2.5-2.5h6c1.3807 0 2.5 1.11929 2.5 2.5v12c0 1.3807-1.1193 2.5-2.5 2.5h-6c-1.38071 0-2.5-1.1193-2.5-2.5z" fill-rule="evenodd"/></g></svg>

<svg width="24" height="24" viewBox="0 0 24 24" fill="none" xmlns="http://www.w3.org/2000/svg">
<path d="M12 18.5C12.8284 18.5 13.5 17.8284 13.5 17C13.5 16.1716 12.8284 15.5 12 15.5C11.1716 15.5 10.5 16.1716 10.5 17C10.5 17.8284 11.1716 18.5 12 18.5Z" fill="black"/>
<path fill-rule="evenodd" clip-rule="evenodd" d="M5 6C5 3.79086 6.79086 2 9 2H15C17.2091 2 19 3.79086 19 6V18C19 20.2091 17.2091 22 15 22H9C6.79086 22 5 20.2091 5 18V6ZM6.5 6C6.5 4.61929 7.61929 3.5 9 3.5H15C16.3807 3.5 17.5 4.61929 17.5 6V18C17.5 19.3807 16.3807 20.5 15 20.5H9C7.61929 20.5 6.5 19.3807 6.5 18V6Z" fill="black"/>
</svg>
